X:1
T:Title
%%score { 1 | 2 }
L:1/8
Q:1/4=92
M:4/4
K:Ab
V:1 treble nm="Grand Piano"
V:2 bass 
V:1
 [CE]2 [CA]>[EG] [DF]2 [Fd]>[FA] | c2 c>B [A,CA]2 [A,EG]2 | [A,DF]2 [A,FA][A,DA] [CE]2 [A,EA][Ec] | %3
w: Chas.~H.~Gabriel,~Jr. * * * * *|||
 [=DB]2 [DF][Dc] B3 E | [CE]2 [CA]>[EG] [DF]2 [Fd]>[FA] | c2 c>B A2 F2 | E4 B4 | %7
w: ||||
[M:7/8] [CA]-[CA]-[CA]- [CA]3 z |[M:1/8] [CE] |[M:4/4] [CA]2 [DB]2 [Ec]3 E | F2 [Fd]2 c3 d | %11
w: ||||
 e>e ed c e2 [Ec] | [=DB]2 [Dc]2 B2 E2 | BBcc ddcB | A2 B2 c2 cd | e2 e2 e e2 [FAd] | %16
w: |||||
 [EAc]2 [DEB]2 [CEA]4 |] %17
w: |
V:2
 [A,,A,]2 [A,,E,]>[C,A,] [D,A,]2 [D,A,]>[D,A,] | [E,A,E]2 [E,G,E]>[E,G,D] A,,2 C,2 | %2
 D,2 D,F, A,2 C,[A,,A,] | [B,,A,]2 [B,,B,][B,,A,] [E,G,D]3 [E,D] | %4
 [A,,A,]2 [A,,E,]>[C,A,] [D,A,]2 [D,A,]>[D,A,] | [E,A,E]2 [E,G,E]>[E,G,D] [F,A,C]2 [=D,A,_C]2 | %6
 [E,A,C]4 [E,G,D]4 |[M:7/8] [A,,A,]-[A,,A,]-[A,,A,]- [A,,A,]3 z |[M:1/8] [A,,A,] | %9
[M:4/4] [A,,A,]2 [A,,E,]2 [A,,A,]3 [C,A,] | [D,A,D]2 [D,A,]2[K:treble] [A,E]3 [A,B,E] | %11
 [A,CA]>[A,CA] [A,CA][A,B,E] [A,E] [A,CA]2[K:bass] [A,,A,] | [B,,A,]2 [B,,A,]2 [E,G,E]2 [E,G,]2 | %13
 [E,G,E][E,G,E][E,A,E][E,A,E] [E,B,E][E,A,E][E,A,E][E,G,D] | %14
 [F,A,C]2 [E,G,E]2[K:treble] [A,E]2 [A,E][A,B,E] | [A,CE]2 [B,DG]2 [CEA] [A,CA]2[K:bass] D, | %16
 E,2 E,2 A,,4 |] %17

